X:1
T:Bad Boys of Dunkirk
M:4/4
C:
S:Bordering on the Absurd
N:
A:Border
O:English
R:Reel
%P:
K:G
L:1/8
P:A
|:\
B>EE>D E>F G2 | F>ED>E F>G A2 | B>EE>D   E>F   G2 | F>ED>E F4 |\
B>EE>D E>F G2 | F>ED>E F>G A2 | (3GGG G2 (3GGG G2 | B>AG>F E4 :|\
P:B
|:      D>GG>F G>A B2 | A>GF>G A>cB>A | D>GG>F   G>A   B2 | A>GF>G A4 |\
D>GG>F G>AB>d | c>BA>B c>de>f | g>dB>G   c>ed>c   | B>GA>F G4 :|
